svg/word_copyrighted.svg

<svg xmlns="http://www.w3.org/2000/svg" viewBox="0 0 32 32" enable-background="new 0 0 32 32"><path d="M 6 3 L 6 4 L 6 28 L 6 29 L 7 29 L 25 29 L 26 29 L 26 28 L 26 4 L 26 3 L 25 3 L 7 3 L 6 3 z M 8 5 L 24 5 L 24 27 L 8 27 L 8 5 z M 18 12 L 18 13 L 18 18.5 C 18 18.716667 17.716667 19 17.5 19 C 17.45833 19 17.52044 19.04808 17.4375 18.9375 C 17.354563 18.826917 17.230978 18.54891 17.15625 18.25 C 17.006795 17.652179 17 17 17 17 L 17 15 L 15 15 L 15 17 L 15 19.5 C 15 19.716667 14.716667 20 14.5 20 C 14.283333 20 14 19.716667 14 19.5 L 14 14 L 14 13 L 13 13 L 10 13 L 10 15 L 12 15 L 12 19.5 C 12 20.883333 13.116667 22 14.5 22 C 15.484224 22 16.185647 21.355655 16.59375 20.53125 C 16.895982 20.716885 17.114192 21 17.5 21 C 18.883333 21 20 19.883333 20 18.5 L 20 14 L 22 14 L 22 12 L 19 12 L 18 12 z" color="#000" overflow="visible" enable-background="accumulate"/></svg>

<svg xmlns="http://www.w3.org/2000/svg" viewBox="0 0 32 32"><path style="text-indent:0;text-align:start;line-height:normal;text-transform:none;block-progression:tb;-inkscape-font-specification:Bitstream Vera Sans" d="M6 3v26h20V3H6zm2 2h16v22H8V5zm10 7v6.5c0 .217-.283.5-.5.5-.042 0 .02.048-.063-.063-.082-.11-.206-.388-.28-.687C17.006 17.652 17 17 17 17v-2h-2v4.5c0 .217-.283.5-.5.5-.217 0-.5-.283-.5-.5V13h-4v2h2v4.5c0 1.383 1.117 2.5 2.5 2.5.984 0 1.686-.644 2.094-1.47.302.187.52.47.906.47 1.383 0 2.5-1.117 2.5-2.5V14h2v-2h-4z" color="#000" overflow="visible" font-family="Bitstream Vera Sans"/></svg>
